X:153
T:Smokey Mokes
C:Rodger Sprung - Wille Locker solo
N: "Progressive Bluegrass Vol 1" Folkways. Arranged by John Baldry, " Bluegrass and Old-Time Mandolin" Vol 1, 1, 1980. Tabledited by Mike Stangeland
L:1/8
Q:1/4=260
M:4/4
K:C
z8 | "C dim"^f2 f2 [f2^d2] [f2d2] | [^f2c2] [f2c2] [f4A4] | "G"GG zG A2 _B2 | 
"G7"B4 [f4B4] |: gb "G7"za g2 f2 | eg zf e2 d2 | "C"ce zd cB A2 | G2 GG G2 A2 | 
"G7"B_B =B_B =B2 d2 | g2 G2 A2 B2 | "C"cB cB c2 e2 | g2 gg gg gg | "G7"gb za g2 f2 | 
eg zf e2 d2 | "C"ce zd cB A2 | G2 GG GG G2 | "F"A3B c2 d2 | "C"ef ec A2 AA | "G7"GG zG A2 B2 | 
|1 c4 [e4c4] :|2 c4 [e2c2] GG |] G2 f2 d2 B2 | AA AA A2 GG | "C"G2 e2 c2 A2 | GG GG G2 GG | 
"G7"G2 f2 d2 B2 | AA AA A2 cB | "C"c2 C2 C2 GF | ED EG c2 GG | "G7"G2 f2 d2 BA | 
AA AA A2 GG | "C"G2 e2 c2 A2 | GG GG G2 G2 | "F"A3B c2 d2 | "C"ef ec A2 AA | "G7"GG2G A2 B2 | 
"C"c4 [e4c4] | [f2c2] [fc][fc] [fc][fc] [fc][fc] | [f2d2] [f2c2] [f2A2] [fA][fA] | 
"Bb"[f2_B2] [fB][fB] [fB][fB] [fB][fB] | "F"[f2A2] [fA][fA] [fA][fA] [fA][fA] | 
"Bb"[f2_B2] [fB][fB] [fB][fB] [fB][fB] | "F"AA zA A2 A2 | "G"[g2B2] [gB][gB] [gB][gB] [gB][gB] | 
"C"[e2c2] [ec][ec] [ec][ec] [ec][ec] | [f2c2] [fc][fc] [fc][fc] [fc][fc] | [f2d2] [f2c2] [f2A2] [fA][fA] | 
"Bb"[f2_B2] [fB][fB] [fB][fB] [fB][fB] | "A"e2 [eA][eA] [eA][eA] [eA][eA] | "Bb"G4 ^G4 | 
"F"A2 cd zc A2 | "C"A2 A3F G2 | "F"F4 F4 |: "A (alternate)""G7"ga ba gf gf | ef gf ef ed | 
"C"cd ed cB A^G | G^F GA G2 G^G | "G7"B_B =B_B =B_B =Bd | g^f =fd BG AB | "C"cB cB cB ce | 
g^f ga g2 ge | "G7"ga ba gf gf | ef gf ef ed | "C"cd ed cB A^G | G^F GA G2 G^G | 
"F"A^G AB cB cd | "C"ef ec "A"AG ^FG | "D"z^G A_B "G"=B_B =Be | "C"cG AG C4 :| 


